svgs/light/hanukiah.svg

<svg xmlns="http://www.w3.org/2000/svg" viewBox="0 0 640 512"><!--! Font Awesome Pro 6.6.0 by @fontawesome - https://fontawesome.com License - https://fontawesome.com/license (Commercial License) Copyright 2024 Fonticons, Inc. --><path d="M336 16l0 32c0 8.8-7.2 16-16 16s-16-7.2-16-16l0-32c0-8.8 7.2-16 16-16s16 7.2 16 16zM64 80l0 32c0 8.8-7.2 16-16 16s-16-7.2-16-16l0-32c0-8.8 7.2-16 16-16s16 7.2 16 16zm64 0l0 32c0 8.8-7.2 16-16 16s-16-7.2-16-16l0-32c0-8.8 7.2-16 16-16s16 7.2 16 16zm64 0l0 32c0 8.8-7.2 16-16 16s-16-7.2-16-16l0-32c0-8.8 7.2-16 16-16s16 7.2 16 16zm64 0l0 32c0 8.8-7.2 16-16 16s-16-7.2-16-16l0-32c0-8.8 7.2-16 16-16s16 7.2 16 16zm160 0l0 32c0 8.8-7.2 16-16 16s-16-7.2-16-16l0-32c0-8.8 7.2-16 16-16s16 7.2 16 16zm64 0l0 32c0 8.8-7.2 16-16 16s-16-7.2-16-16l0-32c0-8.8 7.2-16 16-16s16 7.2 16 16zm64 0l0 32c0 8.8-7.2 16-16 16s-16-7.2-16-16l0-32c0-8.8 7.2-16 16-16s16 7.2 16 16zm64 0l0 32c0 8.8-7.2 16-16 16s-16-7.2-16-16l0-32c0-8.8 7.2-16 16-16s16 7.2 16 16zM320 96c8.8 0 16 7.2 16 16l0 240 48 0 0-176c0-8.8 7.2-16 16-16s16 7.2 16 16l0 176 32 0 0-176c0-8.8 7.2-16 16-16s16 7.2 16 16l0 176 32 0 0-176c0-8.8 7.2-16 16-16s16 7.2 16 16l0 173.3c18.6-6.6 32-24.4 32-45.3l0-128c0-8.8 7.2-16 16-16s16 7.2 16 16l0 128c0 44.2-35.8 80-80 80l-192 0 0 96 160 0c8.8 0 16 7.2 16 16s-7.2 16-16 16l-176 0-176 0c-8.8 0-16-7.2-16-16s7.2-16 16-16l160 0 0-96-192 0c-44.2 0-80-35.8-80-80l0-128c0-8.8 7.2-16 16-16s16 7.2 16 16l0 128c0 20.9 13.4 38.7 32 45.3L96 176c0-8.8 7.2-16 16-16s16 7.2 16 16l0 176 32 0 0-176c0-8.8 7.2-16 16-16s16 7.2 16 16l0 176 32 0 0-176c0-8.8 7.2-16 16-16s16 7.2 16 16l0 176 48 0 0-240c0-8.8 7.2-16 16-16z"/></svg>

<svg xmlns="http://www.w3.org/2000/svg" viewBox="0 0 640 512"><!--! Font Awesome Pro 6.4.2 by @fontawesome - https://fontawesome.com License - https://fontawesome.com/license (Commercial License) Copyright 2023 Fonticons, Inc. --><path d="M336 16V48c0 8.8-7.2 16-16 16s-16-7.2-16-16V16c0-8.8 7.2-16 16-16s16 7.2 16 16zM64 80v32c0 8.8-7.2 16-16 16s-16-7.2-16-16V80c0-8.8 7.2-16 16-16s16 7.2 16 16zm64 0v32c0 8.8-7.2 16-16 16s-16-7.2-16-16V80c0-8.8 7.2-16 16-16s16 7.2 16 16zm64 0v32c0 8.8-7.2 16-16 16s-16-7.2-16-16V80c0-8.8 7.2-16 16-16s16 7.2 16 16zm64 0v32c0 8.8-7.2 16-16 16s-16-7.2-16-16V80c0-8.8 7.2-16 16-16s16 7.2 16 16zm160 0v32c0 8.8-7.2 16-16 16s-16-7.2-16-16V80c0-8.8 7.2-16 16-16s16 7.2 16 16zm64 0v32c0 8.8-7.2 16-16 16s-16-7.2-16-16V80c0-8.8 7.2-16 16-16s16 7.2 16 16zm64 0v32c0 8.8-7.2 16-16 16s-16-7.2-16-16V80c0-8.8 7.2-16 16-16s16 7.2 16 16zm64 0v32c0 8.8-7.2 16-16 16s-16-7.2-16-16V80c0-8.8 7.2-16 16-16s16 7.2 16 16zM320 96c8.8 0 16 7.2 16 16V352h48V176c0-8.8 7.2-16 16-16s16 7.2 16 16V352h32V176c0-8.8 7.2-16 16-16s16 7.2 16 16V352h32V176c0-8.8 7.2-16 16-16s16 7.2 16 16V349.3c18.6-6.6 32-24.4 32-45.3V176c0-8.8 7.2-16 16-16s16 7.2 16 16V304c0 44.2-35.8 80-80 80H336v96H496c8.8 0 16 7.2 16 16s-7.2 16-16 16H320 144c-8.8 0-16-7.2-16-16s7.2-16 16-16H304V384H112c-44.2 0-80-35.8-80-80V176c0-8.8 7.2-16 16-16s16 7.2 16 16V304c0 20.9 13.4 38.7 32 45.3V176c0-8.8 7.2-16 16-16s16 7.2 16 16V352h32V176c0-8.8 7.2-16 16-16s16 7.2 16 16V352h32V176c0-8.8 7.2-16 16-16s16 7.2 16 16V352h48V112c0-8.8 7.2-16 16-16z"/></svg>
